Prism.languages.supercollider = {
	'comment': {
		pattern: /\/\/.*|\/\*(?:[^*/]|\*(
	'punctuation': /[{}()[\].:,;]|#[[{]/
// Пример синтезатора, который воспроизводит синусоидальную волну
{ SinOsc.ar(440, 0, 0.1) }.play;
